X: 100253
M: C|
L: 1/8
K: Gm
uF |\
|: uf |\
{e}d>B(f>B) (g>B)d>f | F<F (F>D) F2 F>f | (d>f)(B>d) c>B c<d | G<GG^F G2 Gf |
(d>B) (f>B) (g>B) (f>e) | {e}d>B (c>A) (B>G)FD | {ga}(.b>.a) (g>f) dbaB | (Ae)d^F G2 "_Segue Reel.""^D.C."G |]


